X: 30983
T: P&O, The
R: polka
M: 2/4
K: Eminor
|:BE EF|G2 FE|FD DE|FD ED|
BE EF|G2 FA|GB Ad|e2 e2:|
|:ge fd|ed BA|Fd de|f2 ef|
ge fd|ed BA|GB Ad|e2 e2:|

